X:0731
T:Lady Ann Hope's Favourite.
M:C
L:1/8
Q:1/4=96
I: :: ||
%% G  A  B  c {^c}  d  e ^f  g  a  b
N:bar 11 is printed |^d>~BGB dg/a/ b>a| - printed
N:as a turn-with-a-sharp in both the Gow editions
Z:Jack Campin * www.campin.me.uk * 2009
K:G
g/e/|Td>B        GB/c/ (d/c/B/A/) GB/c/| d>Bg>B                      A2  AB/c/|
      d>BGB             dg/a/     b>a  | g>edB                      TG2  G   :|
a   |(g/a/b/a/) Tgd    (e/f/g/f/) ed/B/| de/f/            (g/e/d/c/) A2  A
a   |(g/a/b/a/) Tgd     e/f/g/f/  ed/B/|Tde/f/            (g/e/d/B/) d2  d>a  |
     (g/a/)b/a/  g>d    e/f/g/f/  ed/c/| d(e//g//)(f//a//) g/e/d/B/  A2  Af/e/|
      d>{^cBA}BGB       dg/a/     b>a  | gedB                        G2 TG   |]

